X:1
T:Title
%%score 1 2 3
L:1/8
M:3/2
K:C
V:1 treble nm="Part_1"
V:2 treble-8 nm="Part_2"
V:3 treble-8 nm="Part_3"
V:1
 D8 E4 | F4 E4 F4 | G12 | F4 E4 D4 | E2 F2 G4 F4 | G4 A4 F2 E2 | G8 z4 | G4 F4 E2 D2 | %8
 F6 F2 D2 C2 | E8 z4 | F12 | G8 F4 | E4 F4 G2 F2 | A8 G4 | F6 E2 E2 D2 | F8 F4 | C2 D2 E2 F4 E2 | %17
 G2 F2 E2 F2 D2 C2 | E8 z4 | E4 F4 D2 E2 | F4 G4 E2 D2 | F6 G2 F2 ED | E4 C4 D2 E2 | F6 E2 F4 | %24
 E2 F2 G6 F2 | D2 E2 F6 E2 | C2 E6 D2 F2- | F2 E2 C4 B,4 | C8 z4 | C4 E4 F4 | G4 A6 G2 | G4 F4 E4 | %32
 F4 G6 F2 | A4 G2 G2 F2 E2 | G8 z4 | E4 F4 G4 | F2 G2 A6 G2 | G4 F6 E2 | E6 D2 D2 C2 | E12 || %40
[M:3/2] A12 | G4 G6 F2 | A12 | A4 A4 A4 | z4 z4 A4- | A4 A8 | G4 G6 A2 | _B8 B4 | A4 _B6 A2 | %49
 A4 G8 | A12 | z12 | A4 A4 A4 | A4 A4 A4 | A8 F4 | G8 _B4- | B4 A8 | G4 F2 A4 G2 | G8 E4 | F12 || %60
[M:3/2] A8 G4 | G6 F2 A4 | A4 A4 A2 A2 | A6 A2 A4 | z12 | A4 G4 G4- | G2 A2 _B8 | _B4 A4 B4- | %68
 B2 A2 A4 G4 | A12 | z12 | A6 A2 A2 A2 | A4 z4 A2 A2 | A6 G2 F4 | G6 A2 _B4 | A4 G2 F2 G4 | %76
[M:2/2] F2 F2 E2 D2 |[M:3/2] F12 |] %78
V:2
 G8 B4 | A4 G2 c2 B2 A2 | c8 z4 | A4 B8 | A2 D2 G4 D4 | z4 F2 G2 D4 | d12 | e4 c4 B4 | c8 A4 | %9
 B8 z4 | A4 D4 F4 | C8 D4 | z2 d2 c4 d4 | A4 F4 C4 | z2 c2 c4 B2 A2 | c8 c4 | z4 c8 | %17
 B2 c2 B2 B2 A2 G2 | B8 z4 | c4 A6 B2 | c4 d4 z2 G2 | D6 G2 B4 | c4 G4 B4 | c12- | c4 B6 G2 | %25
 B4 c8 | z2 B2 G6 A2 | A2 B2 G4 ^F4 | G8 z4 | A4 B4 c4 | d8 B4 | c8 c4 | d12 | A4 d4 c4 | d8 z4 | %35
 A4 D4 G4 | A2 G2 F8 | G2 E2 F4 D4 | E2 C2 D2 A4 A2 | B12 ||[M:3/2] e12 | d4 d6 c2 | e12 | %43
 e4 e4 e4 | z4 z4 e4- | e4 e8 | d4 d6 e2 | f8 f4 | e4 f6 e2 | e4 d8 | e12 | z12 | e4 e4 e4 | %53
 e4 e4 e4 | e8 c4 | d8 f4- | f4 e8 | d4 c2 e4 d2 | d8 B4 | c12 ||[M:3/2] e8 d4 | d6 c2 e4 | %62
 e4 e4 e2 e2 | e6 e2 e4 | z12 | e4 d4 d4- | d2 e2 f8 | f4 e4 f4- | f2 e2 e4 d4 | e12 | z12 | %71
 e6 e2 e2 e2 | e4 z4 e2 e2 | e6 d2 c4 | d6 e2 f4 | e4 d2 c2 d4 |[M:2/2] c2 c2 B2 A2 |[M:3/2] c12 |] %78
V:3
 G8 G4 | D4 E4 D4 | C12 | D4 G8 | c2 A2 B4 d4 | c6 B2 A4 | G12 | E4 F4 G4 | A8 F4 | E12 | A8 d4 | %11
 c8 A4 | G4 A4 B4 | c12 | A4 G8 | F8 F4 | F4 A8 | G2 A4 G2 F4 | E8 E4 | C4 D4 F2 G2 | A4 G6 B2 | %21
 A4 F2 E2 G4 | C8 G4 | F8 F4 | A4 G4 E2 F2 | G4 F4 A4- | A2 G2 C4 E2 F2- | F2 G2 E4 D4 | C12 | %29
 F4 G4 A4 | G4 D8 | E4 A8 | A4 B6 A2 | c4 B4 A4 | G8 G4 | c4 d4 B4 | A2 B2 c8 | B4 A8 | G4 F8 | %39
 E12 ||[M:3/2] c12 | B4 B6 A2 | A12 | A4 c4 c4 | z4 z4 c4- | c4 A8 | B4 B6 c2 | d12 | A4 d6 c2 | %49
 c4 _B8 | A12 | z12 | c4 c4 c4 | c12 | c8 A4 | G8 d4- | d4 c8 | _B4 A6 B2 | G6 F2 G4 | F12 || %60
[M:3/2] c8 _B4 | _B6 A2 A4 | A8 c2 c2 | c6 A2 A4 | z12 | c4 _B4 B4- | B2 c2 d8- | d4 c4 d4- | %68
 d2 c2 A4 _B4 | A8 A4 | z12 | c6 c2 c2 c2 | c4 z4 c2 c2 | c6 B2 A4 | G4 B2 c2 d4 | c4 B2 A2 G4 | %76
[M:2/2] A4 G4 |[M:3/2] F12 |] %78

